X:66
T: WANN I IN DER FRUEH AUFSTEH
N: F0165
O: Europa, Mitteleuropa, Schweiz
R: Staende -, Hirten -, Alm - Lied; Jodler
M: 3/4
L: 1/8
K: C
 | C,C,E,2G,2 | EEC2
(3E,G,C | D2F2(3D,F,B, | C4z2 |
C,C,E,2G,2 | EEC2
(3E,G,C | D2F2(3D,F,B, | C4
E,G, | F,B,D2D,F, | E,CE2
E,G, | F,B,D2D,F, | E,CE2z2 |
C,C,E,E,G,G, | E2C2
(3E,G,C | D2F2(3D,F,B, | C2z2
(3E,G,C | (3D,F,B,D2(3D,F,B, | (3E,G,CE2
(3E,G,C | (3D,F,B,D2(3D,F,B, | C4z2

@@@ Tune index: 5497
